src/extras-openmoji/animals-nature/E000.svg

<svg id="emoji" viewBox="0 0 72 72" xmlns="http://www.w3.org/2000/svg">
  <g id="grid">
    <path fill="#b3b3b3" d="M68,4V68H4V4H68m4-4H0V72H72V0Z"/>
    <path fill="none" stroke="#00a5ff" stroke-miterlimit="10" stroke-width="0.1" d="M12.923,10.9583H59.0769A1.9231,1.9231,0,0,1,61,12.8814V59.0352a1.9231,1.9231,0,0,1-1.9231,1.9231H12.9231A1.9231,1.9231,0,0,1,11,59.0352V12.8813A1.923,1.923,0,0,1,12.923,10.9583Z"/>
    <rect x="16" y="4" rx="2.2537" width="40" height="64" fill="none" stroke="#00a5ff" stroke-miterlimit="10" stroke-width="0.1"/>
    <rect x="16" y="4" rx="2.2537" width="40" height="64" transform="translate(72) rotate(90)" fill="none" stroke="#00a5ff" stroke-miterlimit="10" stroke-width="0.1"/>
    <circle cx="36" cy="36" r="29" fill="none" stroke="#00a5ff" stroke-miterlimit="10" stroke-width="0.1"/>
  </g>
  <g id="color">
    <path fill="#F1B31C" stroke="none" d="M7,24c0,4.5035,1.4885,8.6593,4.0003,12.0024l-0.0056,0.0027C8.4863,39.3469,7,43.4999,7,48 c5.7457-0.9598,10.2971-4.5961,11.6138-9.2434l0.0066-0.0057C21.0555,44.0525,30.375,48,41.5,48C54.4787,48,65,42.6274,65,36 S54.4787,24,41.5,24c-11.127,0-20.4478,3.9489-22.8809,9.252l0.0089,0.0042C17.3466,28.6438,12.8817,25.0183,7.2187,24"/>
    <path fill="#E27022" stroke="none" d="M33.5741,47.3004C36.0503,47.7533,38.7187,48,41.5,48C54.4787,48,65,42.6274,65,36 c0-5.4539-7.1253-10.0581-16.8818-11.5175L33.5741,47.3004z"/>
  </g>
  <g id="hair"/>
  <g id="skin"/>
  <g id="skin-shadow"/>
  <g id="line">
    <path fill="none" stroke="#000000" stroke-linecap="round" stroke-linejoin="round" stroke-miterlimit="10" stroke-width="2" d="M7,24c0,4.5035,1.4885,8.6593,4.0003,12.0024l-0.0056,0.0027C8.4863,39.3469,7,43.4999,7,48 c5.7457-0.9598,10.2971-4.5961,11.6138-9.2434l0.0066-0.0057C21.0555,44.0525,30.375,48,41.5,48C54.4787,48,65,42.6274,65,36 S54.4787,24,41.5,24c-11.127,0-20.4478,3.9489-22.8809,9.252l0.0089,0.0042C17.3466,28.6438,12.8817,25.0183,7.2187,24"/>
    <circle cx="53" cy="34" r="2" fill="#000000" stroke="none"/>
  </g>
</svg>

<svg viewBox="0 0 72 72" xmlns="http://www.w3.org/2000/svg"><path fill="#b3b3b3" d="M68 4v64H4V4h64m4-4H0v72h72V0z"/><path fill="none" stroke="#00a5ff" stroke-miterlimit="10" stroke-width=".1" d="M12.923 10.958h46.154A1.923 1.923 0 0161 12.881v46.154a1.923 1.923 0 01-1.923 1.923H12.923A1.923 1.923 0 0111 59.035V12.881a1.923 1.923 0 011.923-1.923z"/><rect x="16" y="4" rx="2.254" width="40" height="64" fill="none" stroke="#00a5ff" stroke-miterlimit="10" stroke-width=".1"/><rect x="16" y="4" rx="2.254" width="40" height="64" transform="rotate(90 36 36)" fill="none" stroke="#00a5ff" stroke-miterlimit="10" stroke-width=".1"/><circle cx="36" cy="36" r="29" fill="none" stroke="#00a5ff" stroke-miterlimit="10" stroke-width=".1"/><g stroke-linecap="round" stroke-miterlimit="10" stroke-width="6" stroke="#fff" fill="none" stroke-linejoin="round"><path d="M7 24c0 4.503 1.488 8.66 4 12.002l-.005.003A19.912 19.912 0 007 48c5.746-.96 10.297-4.596 11.614-9.243l.006-.006C21.055 44.053 30.375 48 41.5 48 54.479 48 65 42.627 65 36S54.479 24 41.5 24c-11.127 0-20.448 3.949-22.88 9.252l.008.004c-1.281-4.612-5.746-8.238-11.41-9.256"/><circle cx="53" cy="34" r="2"/></g><path fill="#F1B31C" d="M7 24c0 4.503 1.488 8.66 4 12.002l-.005.003A19.912 19.912 0 007 48c5.746-.96 10.297-4.596 11.614-9.243l.006-.006C21.055 44.053 30.375 48 41.5 48 54.479 48 65 42.627 65 36S54.479 24 41.5 24c-11.127 0-20.448 3.949-22.88 9.252l.008.004c-1.281-4.612-5.746-8.238-11.41-9.256"/><path fill="#E27022" d="M33.574 47.3c2.476.453 5.145.7 7.926.7C54.479 48 65 42.627 65 36c0-5.454-7.125-10.058-16.882-11.518L33.574 47.3z"/><path fill="none" stroke="#000" stroke-linecap="round" stroke-linejoin="round" stroke-miterlimit="10" stroke-width="2" d="M7 24c0 4.503 1.488 8.66 4 12.002l-.005.003A19.912 19.912 0 007 48c5.746-.96 10.297-4.596 11.614-9.243l.006-.006C21.055 44.053 30.375 48 41.5 48 54.479 48 65 42.627 65 36S54.479 24 41.5 24c-11.127 0-20.448 3.949-22.88 9.252l.008.004c-1.281-4.612-5.746-8.238-11.41-9.256"/><circle cx="53" cy="34" r="2"/></svg>
